Assets/Logos/Tinder.svg

<svg width="100" height="24" viewBox="0 0 100 24" fill="none" xmlns="http://www.w3.org/2000/svg">
<g clip-path="url(#clip0_6:236)">
<path d="M8.06458 9.33056C12.4676 7.81293 13.217 3.85963 12.6549 0.224831C12.6549 0.0936787 12.7673 -1.64285e-06 12.8797 0.0374705C17.0954 2.09844 21.8356 6.59509 21.8356 13.3401C21.8356 18.5112 17.8261 23.0828 11.9992 23.0828C9.91994 23.1774 7.86845 22.5768 6.16847 21.3759C4.4685 20.175 3.21686 18.4422 2.6111 16.4509C2.00534 14.4597 2.07997 12.3234 2.82321 10.3792C3.56644 8.4351 4.93595 6.79384 6.71558 5.7145C6.828 5.63955 6.97788 5.7145 6.97788 5.84565C7.03409 6.53888 7.22145 8.28134 7.98963 9.33056H8.06458Z" fill="url(#paint0_radial_6:236)"/>
<path d="M34.2389 18.9796L34.5574 18.6049L35.5504 21.7526L35.4193 21.8837C34.6698 22.577 33.5457 22.9329 32.103 22.9329H32.0468C30.7352 22.9329 29.7048 22.5582 28.9928 21.865C28.2808 21.153 27.9061 20.0851 27.9061 18.7361V10.1549H25.3767V6.68878H27.9061V2.51063H31.8032V6.68878H34.8946V10.1549H31.7845V17.8929C31.7845 18.2489 31.8781 19.3918 32.9648 19.3918C33.5269 19.3918 34.0515 19.1857 34.2389 18.9609V18.9796ZM36.2999 22.577V6.70751H40.197V22.577H36.2999ZM38.2297 0.224831C38.6921 0.224845 39.1441 0.361742 39.5288 0.618266C39.9136 0.874791 40.2138 1.23946 40.3916 1.66632C40.5693 2.09317 40.6168 2.56311 40.528 3.0169C40.4391 3.47068 40.2179 3.88801 39.8922 4.21628C39.5666 4.54455 39.151 4.76907 38.6979 4.86154C38.2449 4.95401 37.7746 4.9103 37.3463 4.73591C36.9181 4.56151 36.551 4.26425 36.2914 3.88158C36.0319 3.49891 35.8914 3.04797 35.8877 2.58558C35.8877 1.31152 36.9556 0.224831 38.2297 0.224831ZM50.6704 6.31405C54.0429 6.31405 55.8978 8.15019 55.8978 11.5039V22.5582H52.0007V12.4407C51.9257 10.6421 51.0639 9.8177 49.2277 9.8177C47.579 9.8177 46.2487 10.8294 45.5742 11.6913V22.5582H41.6771V6.72625H45.5742V8.41249C46.6984 7.3258 48.497 6.35153 50.6704 6.35153V6.31405ZM68.8631 8.35629V0.899329H72.7602V22.5957H68.8631V20.9469C68.2668 21.5759 67.5494 22.0777 66.7541 22.4222C65.9588 22.7668 65.102 22.9469 64.2353 22.9517C59.9822 22.9517 57.1343 19.6167 57.1343 14.6516C57.1343 9.66781 59.9822 6.33279 64.2353 6.33279C65.1039 6.33675 65.9625 6.5183 66.7583 6.86628C67.5542 7.21426 68.2704 7.72132 68.8631 8.35629ZM68.8631 11.71C68.4288 11.1444 67.8738 10.6827 67.2386 10.3586C66.6033 10.0345 65.9037 9.85608 65.1909 9.83644C62.7739 9.83644 61.1626 11.7663 61.1626 14.6516C61.1626 17.5182 62.7739 19.448 65.1909 19.448C66.5961 19.448 68.1324 18.6986 68.8631 17.6119V11.71ZM81.8659 6.33279C86.475 6.33279 89.6789 9.89264 89.6789 14.9514V16.0193H77.8939C78.2874 18.2489 80.0485 19.6729 82.4468 19.6729C83.9644 19.6729 85.6319 19.0171 86.5874 18.0616L86.8497 17.8367L88.7046 20.4973L88.5172 20.6659C86.7616 22.2225 84.4729 23.0414 82.1282 22.9517C77.2569 22.9517 73.8282 19.523 73.8282 14.6329C73.7903 13.5532 73.971 12.4771 74.3593 11.469C74.7477 10.4609 75.3357 9.54164 76.0882 8.76646C76.8406 7.99127 77.7419 7.37611 78.738 6.95791C79.7341 6.53971 80.8044 6.32708 81.8847 6.33279H81.8659ZM77.8752 13.0778H85.8755C85.6506 10.6983 83.6833 9.6116 81.8659 9.6116C79.1305 9.6116 78.1 11.6726 77.8752 13.0965V13.0778ZM99.1031 6.33279H99.3842V10.2674L99.0469 10.2112C98.7659 10.1549 98.4099 10.1175 98.0539 10.1175C96.7986 10.1175 95.0561 10.9981 94.4004 11.9349V22.5582H90.5033V6.70751H94.4191V8.4687C95.7119 7.11971 97.4169 6.33279 99.1031 6.33279Z" fill="#ADADAD"/>
</g>
<defs>
<radialGradient id="paint0_radial_6:236" cx="0" cy="0" r="1" gradientUnits="userSpaceOnUse" gradientTransform="translate(12.0206 23.0925) scale(19.63 23.0634)">
<stop stop-color="#FF7854"/>
<stop offset="1" stop-color="#FD267D"/>
</radialGradient>
<clipPath id="clip0_6:236">
<rect width="99.1736" height="24" fill="white" transform="translate(0.658508)"/>
</clipPath>
</defs>
</svg>

<svg width="100" height="24" fill="none" xmlns="http://www.w3.org/2000/svg"><g clip-path="url(#clip0_6:236)"><path d="M8.065 9.33c4.403-1.517 5.152-5.47 4.59-9.105 0-.131.112-.225.225-.188 4.215 2.061 8.956 6.558 8.956 13.303 0 5.171-4.01 9.743-9.837 9.743A9.368 9.368 0 016.716 5.715c.112-.075.262 0 .262.13.056.694.243 2.436 1.012 3.486h.075z" fill="url(#paint0_radial_6:236)"/><path d="M34.239 18.98l.318-.375.993 3.148-.13.13c-.75.694-1.874 1.05-3.317 1.05h-.056c-1.312 0-2.342-.375-3.054-1.068-.712-.712-1.087-1.78-1.087-3.129v-8.581h-2.53V6.689h2.53V2.51h3.897v4.178h3.092v3.466h-3.11v7.738c0 .356.093 1.499 1.18 1.499.562 0 1.086-.206 1.274-.431v.019zm2.06 3.597V6.707h3.898v15.87H36.3zM38.23.225a2.342 2.342 0 11-2.341 2.36c0-1.273 1.068-2.36 2.342-2.36zm12.441 6.09c3.373-.001 5.228 1.835 5.228 5.189v11.054H52V12.441c-.075-1.799-.937-2.623-2.773-2.623-1.649 0-2.98 1.011-3.654 1.873v10.867h-3.897V6.726h3.897v1.686c1.124-1.086 2.923-2.06 5.096-2.06v-.038zm18.193 2.041V.9h3.897v21.697h-3.897v-1.65a6.425 6.425 0 01-4.628 2.006c-4.253 0-7.1-3.335-7.1-8.3 0-4.984 2.847-8.32 7.1-8.32a6.37 6.37 0 014.628 2.024zm0 3.354a4.797 4.797 0 00-3.672-1.874c-2.417 0-4.028 1.93-4.028 4.816 0 2.866 1.61 4.796 4.028 4.796 1.405 0 2.941-.75 3.672-1.836V11.71zm13.003-5.377c4.609 0 7.813 3.56 7.813 8.618v1.068H77.894c.393 2.23 2.154 3.654 4.553 3.654 1.517 0 3.185-.656 4.14-1.611l.263-.225 1.855 2.66-.188.169a9.106 9.106 0 01-6.389 2.286c-4.871 0-8.3-3.429-8.3-8.32a8.02 8.02 0 018.057-8.3h-.02zm-3.99 6.745h8c-.225-2.38-2.193-3.466-4.01-3.466-2.736 0-3.766 2.06-3.99 3.485v-.02zm21.227-6.745h.281v3.934l-.337-.056a5.253 5.253 0 00-.993-.094c-1.255 0-2.998.881-3.654 1.818v10.623h-3.897V6.708h3.916v1.76c1.293-1.348 2.998-2.135 4.684-2.135z" fill="#ADADAD"/></g><defs><radialGradient id="paint0_radial_6:236" cx="0" cy="0" r="1" gradientUnits="userSpaceOnUse" gradientTransform="matrix(19.63 0 0 23.0634 12.02 23.093)"><stop stop-color="#FF7854"/><stop offset="1" stop-color="#FD267D"/></radialGradient><clipPath id="clip0_6:236"><path fill="#fff" transform="translate(.659)" d="M0 0h99.174v24H0z"/></clipPath></defs></svg>
